outputs/icons/action/visibility_off_round.svg

<svg width="1200" height="1200" viewBox="0 0 1200 1200" fill="none" xmlns="http://www.w3.org/2000/svg"><g clip-path="url(#clip0_223_1910)"><path d="M600 325.009C738 325.009 850 437.009 850 575.01C850 600.51 845 625.01 838 648.01L991 801.01C1060.5 739.51 1115.5 662.51 1150 574.51C1063.5 355.509 850 200.009 600 200.009C536.5 200.009 475.5 210.009 418 228.509L526.5 337.009C550 330.009 574.5 325.009 600 325.009ZM135.5 158.009C116 177.509 116 209.009 135.5 228.509L234 327.009C153 391.509 88.5 476.509 50 575.01C136.5 794.51 350 950.01 600 950.01C676 950.01 748.5 935.01 815.5 909.01L951.5 1045.01C971 1064.51 1002.5 1064.51 1022 1045.01C1041.5 1025.51 1041.5 994.01 1022 974.51L206.5 158.009C187 138.509 155 138.509 135.5 158.009ZM600 825.01C462 825.01 350 713.01 350 575.01C350 536.51 359 500.01 374.5 468.009L453 546.51C451.5 555.51 450 565.01 450 575.01C450 658.01 517 725.01 600 725.01C610 725.01 619 723.51 628.5 721.51L707 800.01C674.5 816.01 638.5 825.01 600 825.01ZM748.5 558.51C741 488.509 686 434.009 616.5 426.509L748.5 558.51Z" fill="#1D1E23"/></g><defs><clipPath id="clip0_223_1910"><path width="24" fill="white" d="M0 0H1200V1200H0V0z"/></clipPath></defs></svg>

<svg xmlns="http://www.w3.org/2000/svg" width="1200" height="1200" fill="none"><g clip-path="url(#a)"><path fill="#000" d="M600 325.009c138 0 250 112 250 250.001 0 25.5-5 50-12 73l153 153c69.5-61.5 124.5-138.5 159-226.5-86.5-219.001-300-374.501-550-374.501-63.5 0-124.5 10-182 28.5l108.5 108.5c23.5-7 48-12 73.5-12m-464.5-167c-19.5 19.5-19.5 51 0 70.5l98.5 98.5c-81 64.5-145.5 149.5-184 248.001 86.5 219.5 300 375 550 375 76 0 148.5-15 215.5-41l136 136c19.5 19.5 51 19.5 70.5 0s19.5-51 0-70.5L206.5 158.009c-19.5-19.5-51.5-19.5-71 0M600 825.01c-138 0-250-112-250-250 0-38.5 9-75 24.5-107.001L453 546.51c-1.5 9-3 18.5-3 28.5 0 83 67 150 150 150 10 0 19-1.5 28.5-3.5l78.5 78.5c-32.5 16-68.5 25-107 25m148.5-266.5c-7.5-70.001-62.5-124.501-132-132.001z"/></g><defs><clipPath id="a"><path fill="#fff" d="M0 0h1200v1200H0z"/></clipPath></defs></svg>
